paymentMethods/afterpay.svg

<svg width="128" height="64" viewBox="0 0 128 64" fill="none" xmlns="http://www.w3.org/2000/svg">
<rect width="128" height="64" rx="6" fill="#B2FCE4"/>
<path d="M120.434 27.4824L116.953 25.4753L113.473 23.3676C112.937 23.0581 112.328 22.8955 111.709 22.8961C111.09 22.8968 110.482 23.0607 109.947 23.3714C109.411 23.6821 108.967 24.1285 108.66 24.6656C108.352 25.2027 108.191 25.8115 108.194 26.4305V26.8559C108.195 26.979 108.225 27.1 108.282 27.209C108.339 27.3179 108.422 27.4117 108.522 27.4824L110.182 28.399C110.255 28.4437 110.337 28.4734 110.422 28.4864C110.507 28.4993 110.594 28.4952 110.677 28.4744C110.76 28.4535 110.839 28.4162 110.908 28.3648C110.977 28.3134 111.035 28.2487 111.079 28.1747V28.1747L111.102 28.1399C111.129 28.0319 111.129 27.919 111.102 27.8111V26.7592C111.094 26.5769 111.157 26.3985 111.28 26.2631C111.402 26.1277 111.573 26.0461 111.756 26.036H112.142L115.449 27.9039L118.736 29.7525C118.896 29.8529 119.01 30.0126 119.053 30.1966C119.095 30.3806 119.064 30.5741 118.964 30.7348L118.736 30.9668L115.449 32.8077L112.158 34.6794C112.081 34.7276 111.996 34.7601 111.907 34.7751C111.817 34.7901 111.726 34.7873 111.638 34.7668C111.55 34.7463 111.467 34.7085 111.393 34.6557C111.32 34.6029 111.258 34.536 111.21 34.459V34.459C111.177 34.3322 111.177 34.1991 111.21 34.0723V33.5347C111.207 32.9202 111.043 32.3172 110.735 31.7853C110.427 31.2535 109.986 30.8112 109.455 30.5022C108.923 30.1933 108.321 30.0283 107.706 30.0236C107.092 30.019 106.487 30.1748 105.951 30.4757L102.389 32.5176L98.9084 34.5247C98.1036 34.9934 97.515 35.7593 97.2691 36.6575C97.0232 37.5558 97.1397 38.5147 97.5935 39.3279C97.8993 39.8813 98.355 40.337 98.9084 40.6428L102.389 42.6499L105.951 44.657C106.486 44.9556 107.089 45.1095 107.702 45.1036C108.314 45.0977 108.915 44.9322 109.444 44.6233C109.973 44.3144 110.412 43.873 110.719 43.3424C111.025 42.8119 111.188 42.2106 111.191 41.598V41.1687C111.192 41.0458 111.163 40.9245 111.106 40.8157C111.048 40.707 110.964 40.6143 110.862 40.5461L109.215 39.5909C109.065 39.5017 108.886 39.4756 108.717 39.5184C108.548 39.5612 108.403 39.6693 108.314 39.819C108.309 39.8314 108.302 39.8431 108.294 39.8538C108.265 39.9811 108.265 40.1133 108.294 40.2406V41.2925C108.304 41.4755 108.24 41.6548 108.118 41.7911C107.995 41.9274 107.824 42.0095 107.641 42.0195C107.513 42.0487 107.381 42.0487 107.254 42.0195L103.967 40.1478L100.676 38.3031C100.505 38.2288 100.37 38.0917 100.298 37.9203C100.226 37.7489 100.223 37.5564 100.289 37.3827L100.521 37.1545L103.812 35.3098L107.099 33.438C107.256 33.3429 107.443 33.3131 107.621 33.3551C107.799 33.3971 107.953 33.5075 108.051 33.6623V33.6623C108.083 33.7892 108.083 33.9222 108.051 34.0491V34.575C108.051 35.1913 108.212 35.7969 108.52 36.3311C108.827 36.8654 109.269 37.3097 109.802 37.6197C110.334 37.9297 110.939 38.0945 111.555 38.0977C112.172 38.1009 112.778 37.9423 113.314 37.6379L116.849 35.5612L120.329 33.554C120.72 33.3161 121.06 33.0035 121.33 32.634C121.6 32.2645 121.794 31.8454 121.902 31.4008C122.01 30.9561 122.029 30.4945 121.958 30.0425C121.887 29.5904 121.728 29.1568 121.489 28.7664L121.466 28.7277C121.23 28.2341 120.875 27.8064 120.434 27.4824V27.4824Z" fill="black"/>
<path d="M97.4659 28.0742L89.2789 44.9858H85.9839L89.0468 38.6551L84.2437 28.0587H87.7242L90.818 35.1204L94.1091 28.0471L97.4659 28.0742Z" fill="black"/>
<path d="M15.5801 34.0608C15.5476 33.4179 15.3273 32.7988 14.9464 32.2799C14.5656 31.761 14.041 31.3651 13.4375 31.1413C12.834 30.9175 12.1781 30.8756 11.5511 31.0208C10.924 31.1659 10.3533 31.4918 9.90948 31.958C9.4657 32.4242 9.16837 33.0103 9.05428 33.6437C8.9402 34.2772 9.01436 34.9302 9.2676 35.5219C9.52085 36.1137 9.94205 36.6181 10.4791 36.9729C11.0161 37.3277 11.6454 37.5173 12.289 37.5181V37.5181C13.1605 37.5181 13.9965 37.1724 14.6134 36.5569C15.2304 35.9414 15.578 35.1063 15.5801 34.2348V34.0608ZM15.5801 40.086V38.5043C15.1159 39.0657 14.5325 39.5166 13.8723 39.8243C13.212 40.1321 12.4915 40.2888 11.7631 40.2832C10.2019 40.2477 8.71859 39.5941 7.63893 38.4658C6.55927 37.3376 5.9715 35.827 6.00469 34.2657V34.2657V34.0646C5.9419 32.4785 6.51162 30.9324 7.58856 29.7662C8.66551 28.6001 10.1615 27.9094 11.7476 27.846V27.846C12.4618 27.8417 13.168 27.9959 13.8153 28.2975C14.4627 28.5991 15.0351 29.0406 15.4911 29.5902V28.0935H18.4187V40.0821L15.5801 40.086Z" fill="black"/>
<path d="M32.9171 37.3518C31.8613 37.3518 31.6022 36.9651 31.6022 35.9712V30.7736H33.4624V28.1748H31.6022V25.1467H28.5742V28.0742H24.6295V26.856C24.6295 25.8699 25.0163 25.4754 26.072 25.4754H26.7333V23.155H25.3179C22.8158 23.155 21.6324 23.9788 21.6324 26.4461V28.0587H19.954V30.789H21.6324V40.202H24.6295V30.7736H28.5742V36.6634C28.5742 39.1308 29.4984 40.1827 31.8613 40.1827H33.5088V37.3518H32.9171Z" fill="black"/>
<path d="M43.7764 32.9779C43.6776 32.2663 43.3151 31.6177 42.7607 31.1608C42.2063 30.7038 41.5005 30.4717 40.7831 30.5106C40.0632 30.477 39.3562 30.7101 38.7974 31.1654C38.2387 31.6206 37.8675 32.266 37.755 32.9779H43.7764ZM37.786 34.8496C37.8387 35.6258 38.1907 36.3512 38.7679 36.8728C39.3451 37.3944 40.1023 37.6715 40.8798 37.6457C41.4446 37.6518 42.0015 37.5127 42.4972 37.2419C42.9929 36.971 43.4107 36.5774 43.7106 36.0988H46.8045C46.4233 37.3698 45.6238 38.4748 44.5357 39.2344C43.4476 39.9939 42.1347 40.3635 40.8102 40.2832C39.2447 40.3905 37.7007 39.872 36.5172 38.8416C35.3338 37.8112 34.6078 36.3531 34.4988 34.7878V34.0607C34.5392 32.4388 35.212 30.8969 36.3734 29.7641C37.5348 28.6313 39.093 27.9972 40.7154 27.9972C42.3379 27.9972 43.896 28.6313 45.0575 29.7641C46.2189 30.8969 46.8916 32.4388 46.9321 34.0607C46.963 34.3098 46.963 34.5618 46.9321 34.811L37.786 34.8496Z" fill="black"/>
<path d="M66.2763 34.0607C66.2544 33.1953 65.8925 32.3734 65.2689 31.773C64.6453 31.1726 63.8103 30.8421 62.9447 30.8531C62.0791 30.864 61.2527 31.2155 60.6445 31.8315C60.0363 32.4474 59.6952 33.2782 59.6952 34.1438C59.6952 35.0095 60.0363 35.8403 60.6445 36.4562C61.2527 37.0722 62.0791 37.4237 62.9447 37.4346C63.8103 37.4456 64.6453 37.1151 65.2689 36.5147C65.8925 35.9143 66.2544 35.0924 66.2763 34.227V34.0607ZM56.7705 44.9858V28.0742H59.698V29.6211C60.1628 29.0606 60.7464 28.6105 61.4066 28.3035C62.0667 27.9965 62.787 27.8402 63.515 27.846C64.289 27.8571 65.0532 28.0207 65.7639 28.3275C66.4745 28.6343 67.1177 29.0783 67.6565 29.634C68.1953 30.1898 68.6193 30.8463 68.904 31.5661C69.1888 32.2858 69.3288 33.0547 69.316 33.8287V33.8287V34.0568C69.3476 34.8438 69.2235 35.6292 68.9511 36.3681C68.6786 37.1071 68.263 37.785 67.728 38.363C67.1931 38.9411 66.5494 39.4079 65.8337 39.7367C65.1181 40.0655 64.3446 40.2499 63.5576 40.2793V40.2793C62.8657 40.2912 62.1796 40.1521 61.5471 39.8715C60.9146 39.591 60.3508 39.1759 59.8953 38.655V44.9858H56.7705Z" fill="black"/>
<path d="M79.9665 34.0607C79.9335 33.4252 79.7169 32.8129 79.3431 32.2979C78.9692 31.783 78.4541 31.3874 77.86 31.1592C77.266 30.9311 76.6185 30.88 75.996 31.0122C75.3735 31.1445 74.8027 31.4543 74.3528 31.9043C73.9028 32.3543 73.5929 32.9251 73.4607 33.5476C73.3284 34.17 73.3795 34.8175 73.6077 35.4116C73.8359 36.0056 74.2314 36.5208 74.7464 36.8946C75.2613 37.2685 75.8736 37.4851 76.5092 37.5181H76.6755C77.5483 37.5181 78.3854 37.1713 79.0026 36.5541C79.6198 35.9369 79.9665 35.0999 79.9665 34.227V34.0607M79.9665 40.0859V38.5042C79.5103 39.0668 78.9327 39.5191 78.2771 39.8271C77.6215 40.1352 76.9048 40.2911 76.1804 40.2832C75.406 40.2716 74.6414 40.1074 73.9304 39.7999C73.2195 39.4924 72.5762 39.0477 72.0374 38.4913C71.4985 37.9348 71.0747 37.2776 70.7903 36.5571C70.5058 35.8367 70.3662 35.0672 70.3795 34.2928V34.2928V34.0607C70.349 33.275 70.4735 32.491 70.746 31.7535C71.0184 31.0159 71.4335 30.3393 71.9675 29.7622C72.5016 29.1851 73.144 28.7188 73.8583 28.39C74.5725 28.0613 75.3445 27.8764 76.1302 27.846V27.846C76.8443 27.8381 77.5512 27.9907 78.1984 28.2926C78.8457 28.5945 79.4169 29.0379 79.8698 29.5901V28.0935H82.8283V40.0821L79.9665 40.0859Z" fill="black"/>
<path d="M51.4414 29.2615C51.7148 28.8205 52.098 28.4583 52.5536 28.2101C53.0092 27.962 53.5215 27.8365 54.0402 27.846C54.4827 27.834 54.922 27.924 55.3241 28.109V31.2028C54.6818 30.8104 53.9377 30.6166 53.1855 30.6459C52.6702 30.7561 52.215 31.0557 51.91 31.4853C51.6049 31.915 51.4722 32.4435 51.5381 32.9663V40.0937H48.4829V28.0742H51.4414V29.2615Z" fill="black"/>
</svg>

<svg xmlns="http://www.w3.org/2000/svg" width="128" height="64" fill="none"><rect width="128" height="64" fill="#B2FCE4" rx="6"/><path fill="#000" d="m120.434 27.482-3.481-2.007-3.48-2.107a3.522 3.522 0 0 0-4.813 1.298 3.514 3.514 0 0 0-.466 1.764v.426a.775.775 0 0 0 .328.626l1.66.917a.648.648 0 0 0 .897-.224l.023-.035a.677.677 0 0 0 0-.329V26.76a.692.692 0 0 1 .654-.723h.386l3.307 1.868 3.287 1.849a.717.717 0 0 1 .228.982l-.228.232-3.287 1.84-3.291 1.872a.688.688 0 0 1-.948-.22.768.768 0 0 1 0-.387v-.537a3.526 3.526 0 0 0-1.755-3.033 3.535 3.535 0 0 0-3.504-.026l-3.562 2.042-3.48 2.007a3.554 3.554 0 0 0-1.316 4.803c.306.553.762 1.009 1.315 1.315l3.481 2.007 3.562 2.007a3.522 3.522 0 0 0 5.24-3.059v-.43a.747.747 0 0 0-.085-.352.748.748 0 0 0-.244-.27l-1.647-.955a.658.658 0 0 0-.921.263.87.87 0 0 0 0 .387v1.051a.692.692 0 0 1-.653.727.866.866 0 0 1-.387 0l-3.287-1.871-3.291-1.845a.722.722 0 0 1-.387-.92l.232-.229 3.291-1.844 3.287-1.872a.697.697 0 0 1 .952.224.791.791 0 0 1 0 .387v.526a3.515 3.515 0 0 0 1.751 3.045 3.52 3.52 0 0 0 3.512.018l3.535-2.077 3.48-2.007a3.48 3.48 0 0 0 1.16-4.788l-.023-.038a3.327 3.327 0 0 0-1.032-1.246ZM97.466 28.074l-8.187 16.912h-3.295l3.063-6.33-4.803-10.597h3.48l3.094 7.061 3.291-7.073 3.357.027ZM15.58 34.06a3.29 3.29 0 1 0-3.291 3.458 3.291 3.291 0 0 0 3.291-3.283v-.174Zm0 6.026v-1.582a4.904 4.904 0 0 1-3.817 1.78 5.894 5.894 0 0 1-5.758-6.018v-.201a5.987 5.987 0 0 1 5.743-6.219 4.827 4.827 0 0 1 3.743 1.744v-1.497h2.928v11.99l-2.839.003ZM32.917 37.352c-1.056 0-1.315-.387-1.315-1.38v-5.198h1.86v-2.6h-1.86v-3.027h-3.028v2.927H24.63v-1.218c0-.986.387-1.38 1.443-1.38h.661v-2.321h-1.415c-2.502 0-3.686.824-3.686 3.291v1.613h-1.678v2.73h1.678v9.413h2.997v-9.428h3.945v5.89c0 2.467.924 3.519 3.287 3.519h1.648v-2.831h-.592ZM43.776 32.978a2.865 2.865 0 0 0-2.993-2.467 2.927 2.927 0 0 0-3.028 2.467h6.021Zm-5.99 1.872a3 3 0 0 0 3.094 2.796 3.3 3.3 0 0 0 2.83-1.547h3.094a5.886 5.886 0 0 1-5.994 4.184 5.921 5.921 0 0 1-6.311-5.495v-.727a6.218 6.218 0 0 1 12.433 0c.031.249.031.5 0 .75l-9.146.039ZM66.276 34.06a3.291 3.291 0 1 0 0 .167v-.166Zm-9.505 10.926V28.074h2.927v1.547a4.908 4.908 0 0 1 3.817-1.775 5.887 5.887 0 0 1 5.801 5.983v.228a5.988 5.988 0 0 1-5.758 6.222 4.756 4.756 0 0 1-3.663-1.624v6.33H56.77ZM79.966 34.06a3.292 3.292 0 1 0-3.457 3.458h.166a3.291 3.291 0 0 0 3.291-3.291v-.166m0 6.025v-1.582a4.806 4.806 0 0 1-3.786 1.78 5.89 5.89 0 0 1-5.8-5.991v-.232a5.987 5.987 0 0 1 5.75-6.215 4.768 4.768 0 0 1 3.74 1.744v-1.497h2.958v11.99l-2.862.003ZM51.441 29.262a2.993 2.993 0 0 1 2.6-1.416c.442-.012.881.078 1.283.263v3.094a3.817 3.817 0 0 0-2.139-.557 2.104 2.104 0 0 0-1.647 2.32v7.128h-3.055v-12.02h2.958v1.188Z"/></svg>
